img/svg/calendar.svg

<svg width="44" height="43" viewBox="0 0 44 43" fill="none" xmlns="http://www.w3.org/2000/svg">
<g clip-path="url(#clip0)">
<path d="M9.45729 24.9856C14.3086 24.9856 18.2552 28.9322 18.2552 33.7835C18.2552 38.6348 14.3086 42.5814 9.45729 42.5814C4.60599 42.5814 0.659401 38.6348 0.659401 33.7835C0.659401 28.9322 4.60599 24.9856 9.45729 24.9856ZM9.45729 41.1151C13.4999 41.1151 16.7889 37.8261 16.7889 33.7835C16.7889 29.7409 13.4999 26.4519 9.45729 26.4519C5.41466 26.4519 2.12572 29.7409 2.12572 33.7835C2.12572 37.8261 5.41466 41.1151 9.45729 41.1151Z" fill="white"/>
<path d="M5.05838 33.0503H8.72416V29.3845C8.72416 28.9791 9.05188 28.6514 9.45732 28.6514C9.86275 28.6514 10.1905 28.9791 10.1905 29.3845V33.7835C10.1905 34.1889 9.86275 34.5166 9.45732 34.5166H5.05838C4.65294 34.5166 4.32522 34.1889 4.32522 33.7835C4.32522 33.378 4.65294 33.0503 5.05838 33.0503Z" fill="white"/>
<path d="M23.3872 15.4546H24.8536H29.9857H31.452H38.0504V22.053V23.5193V28.6514V30.1177V36.7161H31.452H29.9857H23.3872V30.1177V28.6514V23.5193H18.2551H16.7888H10.1904V15.4546H16.7888H18.2551H23.3872ZM16.7888 16.9209H11.6567V22.053H16.7888V16.9209ZM29.9857 16.9209H24.8536V22.053H29.9857V16.9209ZM36.5841 16.9209H31.452V22.053H36.5841V16.9209ZM36.5841 23.5193H31.452V28.6514H36.5841V23.5193ZM31.452 35.2498H36.5841V30.1177H31.452V35.2498ZM24.8536 35.2498H29.9857V30.1177H24.8536V35.2498ZM24.8536 28.6514H29.9857V23.5193H24.8536V28.6514ZM18.2551 22.053H23.3872V16.9209H18.2551V22.053Z" fill="white"/>
<path d="M18.9883 40.382H41.7162V11.7889H6.52464V21.3199C6.52464 21.7253 6.19692 22.0531 5.79149 22.0531C5.38605 22.0531 5.05833 21.7253 5.05833 21.3199V11.0557V3.72414C5.05833 3.3187 5.38605 2.99098 5.79149 2.99098H9.45728V0.791507C9.45728 0.386071 9.785 0.0583496 10.1904 0.0583496H15.3225C15.728 0.0583496 16.0557 0.386071 16.0557 0.791507V2.99098H32.1851V0.791507C32.1851 0.386071 32.5129 0.0583496 32.9183 0.0583496H38.0504C38.4558 0.0583496 38.7836 0.386071 38.7836 0.791507V2.99098H42.4493C42.8548 2.99098 43.1825 3.3187 43.1825 3.72414V11.0557V41.1152C43.1825 41.5206 42.8548 41.8483 42.4493 41.8483H18.9883C18.5829 41.8483 18.2552 41.5206 18.2552 41.1152C18.2552 40.7097 18.5829 40.382 18.9883 40.382ZM14.5894 1.52466H10.9236V3.72414V5.92361H14.5894V3.72414V1.52466ZM37.3172 1.52466H33.6515V3.72414V5.92361H37.3172V3.72414V1.52466ZM41.7162 4.45729H38.7836V6.65676C38.7836 7.0622 38.4558 7.38992 38.0504 7.38992H32.9183C32.5129 7.38992 32.1851 7.0622 32.1851 6.65676V4.45729H16.0557V6.65676C16.0557 7.0622 15.728 7.38992 15.3225 7.38992H10.1904C9.785 7.38992 9.45728 7.0622 9.45728 6.65676V4.45729H6.52464V10.3225H41.7162V4.45729Z" fill="white"/>
</g>
<defs>
<clipPath id="clip0">
<rect width="42.5231" height="42.5231" fill="white" transform="matrix(-1 0 0 1 43.1825 0.0583496)"/>
</clipPath>
</defs>
</svg>

<svg width="44" height="43" viewBox="0 0 44 43" fill="none" xmlns="http://www.w3.org/2000/svg"><g clip-path="url(#a)" fill="#fff"><path d="M9.457 24.986c4.852 0 8.798 3.946 8.798 8.797 0 4.852-3.946 8.798-8.798 8.798-4.851 0-8.798-3.946-8.798-8.798 0-4.85 3.947-8.797 8.798-8.797zm0 16.13c4.043 0 7.332-3.29 7.332-7.333 0-4.042-3.29-7.331-7.332-7.331s-7.331 3.289-7.331 7.331c0 4.043 3.289 7.332 7.331 7.332z"/><path d="M5.058 33.05h3.666v-3.665a.732.732 0 1 1 1.466 0v4.398a.732.732 0 0 1-.733.734H5.058a.732.732 0 1 1 0-1.467zm18.329-17.595H38.05v21.261H23.387V23.52H10.19v-8.064h13.197zM16.79 16.92h-5.132v5.132h5.132V16.92zm13.197 0h-5.132v5.132h5.132V16.92zm6.598 0h-5.132v5.132h5.132V16.92zm0 6.598h-5.132v5.132h5.132v-5.13zm-5.132 11.73h5.132v-5.131h-5.132v5.132zm-6.598 0h5.132v-5.131h-5.132v5.132zm0-6.598h5.132v-5.13h-5.132v5.132zm-6.599-6.598h5.132V16.92h-5.132v5.132z"/><path d="M18.988 40.382h22.728V11.789H6.525v9.53a.733.733 0 1 1-1.467 0V3.725c0-.405.328-.733.733-.733h3.666v-2.2c0-.405.328-.733.733-.733h5.133c.405 0 .733.328.733.734V2.99h16.13V.79c0-.405.327-.733.732-.733h5.132c.406 0 .734.328.734.734V2.99h3.665c.406 0 .733.328.733.733v37.393a.732.732 0 0 1-.733.732H18.99a.732.732 0 1 1 0-1.466zM14.59 1.525h-3.665v4.399h3.665v-4.4zm22.728 0h-3.666v4.399h3.666v-4.4zm4.4 2.932h-2.933v2.2a.733.733 0 0 1-.734.733h-5.132a.733.733 0 0 1-.733-.733v-2.2h-16.13v2.2a.732.732 0 0 1-.732.733H10.19a.732.732 0 0 1-.733-.733v-2.2H6.525v5.865h35.191V4.457z"/></g><defs><clipPath id="a"><path fill="#fff" transform="matrix(-1 0 0 1 43.182 .058)" d="M0 0h42.523v42.523H0z"/></clipPath></defs></svg>
